X:0352
T:The 14th. of October.
M:C
L:1/8
Q:1/2=72
I: :: ::
Z:Jack Campin * www.campin.me.uk * 2009
K:G
G>A| B3   g  (dB)(AG)|B2d>e d2AB|c3  e (dB)(AG) |B2A>B A2
GA |(Bd)(eg) (dB)(AG)|B2ga  g2Bc|d>edB (cB)(TAG)|E2G>A G2::
de | g>aba    gedB   |d2g>a g2AB|c>deg (dB)(AG) |B2AB  A2
GA | BABG     EGAB   |cBcd  edef|gfga   babd    |e2g>a g2:|

